app/dist/common/images/kulicke-and-soffa-industries.svg

<svg height="18" width="18" xmlns="http://www.w3.org/2000/svg"><path d="m0 0h18v18h-18z" fill="#ec0928"/><path d="m6 5v2.893l1.781-2.893h2.063l-2.384 3.88.616.31-.983 1.596-1.093-.643v.857h-2v-6zm6.961 9-3.348-1.954.996-1.574 3.324 1.954z" fill="#fff"/><path d="m4 14h4l4.414-7h2.586v-2h-4l-4.25 7h-2.75z"/></svg>

<!-- by TradingView --><svg width="18" height="18" xmlns="http://www.w3.org/2000/svg"><path fill="#EC0928" d="M0 0h18v18H0z"/><path d="M6 5v2.893L7.781 5h2.063L7.46 8.88l.616.31-.983 1.596L6 10.143V11H4V5h2zm6.961 9l-3.348-1.954.996-1.574 3.324 1.954L12.961 14z" fill="#fff"/><path d="M4 14h4l4.414-7H15V5h-4l-4.25 7H4v2z" fill="#000"/></svg>
